build-configs/malte/assets/app-logo.svg

<svg xmlns="http://www.w3.org/2000/svg" width="335" height="130" fill="none" viewBox="0 0 335 130"><g clip-path="url(#a)"><path fill="#fe0000" d="M100.37 0H12.43C5.565 0 0 5.565 0 12.43v87.94c0 6.865 5.565 12.43 12.43 12.43h87.94c6.865 0 12.43-5.565 12.43-12.43V12.43C112.8 5.565 107.235 0 100.37 0Z"/><path fill="#fff" d="M99.3 82.24c-1.64 2.29-3.21 4.48-4.79 6.67-2.51 3.49-5.04 6.96-7.54 10.46-.3.42-.55.47-1.04.35-2.17-.57-4.35-1.14-6.55-1.56-.74-.14-1.59.03-2.35.23-6.92 1.9-13.83 3.84-20.74 5.74-.83.23-1.7.35-2.56.47-1.61.24-3.05-.19-4.37-1.15-4.23-3.08-8.49-6.12-12.72-9.21-1.86-1.36-3.64-2.81-5.47-4.21-1.99-1.52-3.52-3.46-5.01-5.41-3.01-3.93-5.93-7.93-8.85-11.92-.53-.73-.43-1.04.26-1.5.09-.06.21-.13.32-.13 1.16 0 2.33-.17 3.46.38 1.34.65 2.59 1.39 3.69 2.41 2.37 2.21 4.77 4.4 7.16 6.59.19.17.4.32.66.52-.51.27-.88.46-1.24.67-1.33.77-1.79 1.76-1.52 3.24.3 1.65 1.11 2.95 2.56 3.87 1.8 1.14 3.71 1.79 5.89 1.83 7.21.14 14.42.37 21.63.56h.81c.23-.65-.07-.75-.56-.76-2.51-.06-5.02-.14-7.54-.22-4.84-.15-9.67-.32-14.51-.44-2.26-.06-4.26-.77-6.03-2.18-1.16-.92-1.59-2.18-1.62-3.59-.03-.92.58-1.47 1.32-1.84 2.06-1.04 4.25-1.64 6.55-1.71 1.06-.03 2.14.18 3.2.25 1.52.1 3.04.2 4.57.25 4.12.15 8.24.09 12.22-1.1 2.03-.61 3.99-1.51 5.94-2.35 3.26-1.39 6.54-2.74 10.09-3.21 5.41-.73 10.76-.66 15.79 1.78 3.26 1.59 6.17 3.73 8.9 6.23z"/><path fill="#fff" d="M56.48 7.48h28.48c.61 0 .92.3.92.91v27.98C85.87 51.68 76.87 65.18 62.71 71c-1.88.77-3.87 1.26-5.82 1.85-.3.09-.66.07-.97-.01-14.19-3.67-23.41-12.53-27.64-26.55-.98-3.23-1.31-6.58-1.31-9.95-.01-9.31 0-18.61 0-27.91 0-.63.32-.94.97-.94h28.55zM28.93 9.22c-.02.26-.04.49-.04.71v26.79c0 2.55.23 5.07.84 7.54 3.19 12.78 11 21.38 23.39 25.87 2.22.8 4.27.8 6.52.04 14.71-5 24.29-18.3 24.31-33.95.01-8.72 0-17.44 0-26.15 0-.27-.03-.55-.04-.85H28.92ZM92 108.78c-1.61-1.96-3.1-3.76-4.57-5.58-.22-.27-.28-.56 0-.94 4.51-6.25 8.97-12.53 13.49-18.76.76-1.05 2.08-1.61 3.29-.92.41.23.87.35 1.31.52.82.3.84.32.45 1.08-1.47 2.94-2.93 5.88-4.45 8.8-2.4 4.6-4.78 9.21-7.7 13.51-.51.75-1.12 1.43-1.81 2.3zM35.3 80.07c-.49.15-.97.34-1.47.43-.18.03-.44-.11-.6-.24-2.68-2.43-5.35-4.87-8.01-7.32-1.25-1.15-2.68-2-4.27-2.52-.73-.24-1.57-.21-2.36-.23-.47-.02-.7-.14-.71-.63 0-.28-.1-.55-.12-.83-.08-.89.38-1.49 1.27-1.45 1.52.06 3.05.39 4.18 1.43 4.05 3.69 8.01 7.46 12.01 11.2.03.03.04.08.08.17zM23.75 68.06c.81-.38 1.52-.35 2.16.11.97.68 2 1.32 2.84 2.14 2.9 2.84 5.73 5.76 8.59 8.64.18.18.42.31.58.53-.88.3-1.59.48-2.37-.27-3.81-3.65-7.69-7.25-11.54-10.86-.08-.08-.14-.17-.25-.3zM39.79 79.66c-.36-.13-.81-.16-1.06-.4-3.15-3.12-6.27-6.28-9.39-9.43-.11-.11-.2-.24-.3-.36.03-.05.06-.11.09-.16.3.13.65.18.88.39 3.32 3.04 6.8 5.92 9.66 9.43.08.1.15.22.23.33-.03.07-.07.14-.1.2z"/><path fill="#fe0000" d="M28.92 9.23h54.99c.02.3.04.58.04.85 0 8.72.01 17.44 0 26.15-.02 15.65-9.6 28.95-24.31 33.95-2.26.77-4.31.77-6.52-.04-12.39-4.49-20.2-13.09-23.39-25.87-.62-2.47-.85-5-.84-7.54V9.94c0-.23.03-.46.04-.71zm27.45 27.62c-6.89-2.86-13.62-5.64-20.34-8.43-.04.06-.07.12-.11.19 2.76 2.74 5.52 5.48 8.34 8.27-2.87 2.85-5.66 5.63-8.45 8.41l.09.15c6.76-2.79 13.51-5.59 20.27-8.38.03.05.07.1.11.15-2.79 6.73-5.58 13.47-8.38 20.2l.18.12c2.76-2.77 5.52-5.55 8.41-8.45 2.8 2.81 5.56 5.59 8.32 8.36.03-.02.06-.03.08-.05-2.79-6.75-5.57-13.49-8.43-20.41 6.93 2.87 13.69 5.67 20.44 8.48l.14-.2-8.49-8.46 8.43-8.37c-6.85 2.83-13.6 5.61-20.51 8.47 2.88-6.94 5.69-13.71 8.49-20.48-.06-.05-.12-.09-.18-.13-2.78 2.8-5.57 5.6-8.52 8.58l-8.34-8.4c2.8 6.76 5.59 13.51 8.45 20.42z"/><path fill="#fff" d="M56.37 36.85c-2.86-6.91-5.66-13.66-8.45-20.42l8.34 8.4c2.96-2.97 5.74-5.78 8.52-8.58.06.05.12.09.18.13-2.8 6.76-5.61 13.53-8.49 20.48 6.91-2.85 13.66-5.64 20.51-8.47l-8.43 8.37c2.92 2.91 5.7 5.69 8.49 8.46l-.14.2c-6.75-2.8-13.51-5.6-20.44-8.48 2.86 6.92 5.64 13.67 8.43 20.41-.03.02-.06.03-.08.05-2.76-2.77-5.52-5.55-8.32-8.36-2.89 2.9-5.65 5.68-8.41 8.45l-.18-.12c2.79-6.73 5.58-13.47 8.38-20.2-.03-.05-.07-.1-.11-.15-6.76 2.79-13.51 5.59-20.27 8.38l-.09-.15c2.79-2.78 5.58-5.55 8.45-8.41-2.81-2.79-5.58-5.53-8.34-8.27.04-.06.07-.12.11-.19 6.72 2.79 13.45 5.58 20.34 8.43z"/><path fill="currentColor" d="M127.52 79.2v-2.99c2.65-.19 4.22-.38 4.71-.56.28-.09.5-.26.67-.49.21-.3.35-.75.42-1.34.16-1.34.3-4.25.42-8.75.07-2.18.11-5.93.11-11.25 0-4.76-.04-8.97-.11-12.64s-.22-5.85-.46-6.56c-.09-.33-.24-.58-.44-.76-.2-.18-.58-.31-1.14-.4-1.55-.26-2.94-.41-4.18-.46v-2.99c4.83.14 8.16.21 9.98.21 2.41 0 4.84-.07 7.28-.21l3.09 6.96 2.46 5.27 11.18 23.06c2.39-4.62 4.18-8.2 5.38-10.76l4.64-9.74c2.58-5.44 4.15-8.78 4.73-10.04.58-1.26 1.22-2.84 1.95-4.76 3.07.16 5.04.25 5.91.25L194.6 30v2.99h-.49c-2.37-.02-3.87.25-4.5.83-.63.58-.95 1.68-.95 3.32 0 1.95-.01 3.42-.04 4.43l-.18 9.88v12.34c0 3 .01 4.76.04 5.27.19 2.98.35 4.8.49 5.48.07.33.2.59.39.79.19.2.46.35.81.46.35.11 1.83.24 4.43.4v2.99l-11.21-.21-10.97.21v-2.99c2.91-.09 4.56-.26 4.97-.51.41-.25.7-.8.88-1.67.18-.87.26-3.77.26-8.72V39.7l-8.16 16.49-3.9 8.19c-1.03 2.16-2.48 5.29-4.36 9.39-1.15 2.48-2.05 4.49-2.71 6.01h-2.39c-.84-1.97-2.06-4.66-3.66-8.09-2.72-5.86-4.78-10.23-6.19-13.11l-9.25-18.88v17.26c0 2.88.04 6.31.12 10.28.08 3.97.17 6.22.26 6.75.09.53.24.91.44 1.14.2.23.55.43 1.05.6.5.17 1.94.32 4.31.46v2.99c-2.62-.14-5.31-.21-8.05-.21-3.59 0-6.43.07-8.54.21zM231.34 76.56v2.64c-2.7-.12-5.09-.18-7.17-.18-1.97 0-3.88.06-5.73.18l-.32-.39.32-4.61c-.84.54-3.33 2.39-7.45 5.55-1.05.23-2.06.35-3.02.35-2.55 0-4.55-.75-5.99-2.25-1.44-1.5-2.16-3.66-2.16-6.47 0-1.9.32-3.46.97-4.68.65-1.22 1.34-2.12 2.07-2.69.73-.57 1.88-1.13 3.43-1.67 3.7-1.31 7.76-2.34 12.16-3.09.05-2.79-.53-4.91-1.72-6.36-1.22-1.45-3.07-2.18-5.55-2.18-1.01 0-1.97.13-2.88.39-.4.12-.87.35-1.41.7l-1.48 3.55-2.39-.53.21-4.54c1.73-1.17 3.39-2.19 4.96-3.06 1.57-.87 2.67-1.39 3.3-1.58.87-.26 2.09-.39 3.66-.39 2.55 0 4.66.37 6.31 1.11 1.65.74 2.87 1.61 3.66 2.62a8.86 8.86 0 0 1 1.62 3.23c.3 1.14.44 2.6.44 4.36 0 .75-.06 2.71-.18 5.87-.07 2.11-.11 3.83-.11 5.17 0 4.17.12 6.7.35 7.59.09.42.28.7.56.84.38.19 1.56.35 3.55.49zm-12.9-14.34c-1.99.42-3.81.93-5.47 1.53-1.66.6-2.79 1.34-3.43 2.21-.64.87-.95 1.99-.95 3.32 0 1.5.38 2.66 1.14 3.48.76.82 1.76 1.23 3.01 1.23 1.05 0 2.12-.3 3.18-.91 1.06-.61 1.9-1.38 2.51-2.32v-8.54zM254.86 76.39v2.81c-2.93-.19-5.99-.28-9.18-.28-3.19 0-6.77.09-10.76.28v-2.78c2.23-.07 3.57-.16 4.04-.28.35-.09.62-.23.79-.4.17-.17.3-.45.37-.83.16-.7.28-2.92.35-6.64.07-3.72.11-7.03.11-9.91v-11.6c0-3.68-.08-7.04-.25-10.09-.09-1.64-.21-2.61-.35-2.92-.09-.16-.22-.29-.39-.39-.28-.19-.73-.33-1.34-.42-.35-.05-1.41-.11-3.16-.18v-2.6c2.91-.3 5.23-.64 6.96-1 1.73-.36 4.07-1 7-1.92l.74.42-.28 7.1c-.12 3.98-.19 8.87-.21 14.66v9c0 3.4.02 5.94.07 7.63.09 4.2.16 6.73.21 7.61.05.88.13 1.44.25 1.67.07.16.19.3.35.42.21.16.57.29 1.09.39.21.05 1.41.13 3.59.25zM258.59 52.45v-1.58l3.16-2c.52-.33 1.01-.68 1.48-1.05v-4.71c0-1.69-.09-3.77-.28-6.26 2.27-.75 3.75-1.25 4.43-1.51.12-.05 1.61-.74 4.46-2.07l.91.7-.35 3.66-.25 4.04-.32 6.15h1.16c3.12 0 5.47-.12 7.07-.35l-.6 4.75c-.28.05-.54.07-.77.07l-3.45-.07h-3.41v11.74c0 3.61.04 5.74.11 6.4.09 1.1.49 1.96 1.18 2.58.69.62 1.69.93 3.01.93.8.02 1.44 0 1.92-.05s1.1-.17 1.85-.33l.56 1.44-1.27 1.27c-1.03 1.05-1.93 1.98-2.71 2.78-.91.4-1.73.66-2.44.79s-1.45.19-2.2.19c-2.72 0-4.86-.7-6.42-2.09-1.56-1.39-2.34-3.13-2.34-5.22l.14-11.6v-8.68h-.95c-1.29 0-2.52.04-3.69.11zM313.57 73.79l-1.55 3.45c-1.92 1.17-3.9 2.04-5.94 2.6-1.52.4-3.26.6-5.2.6-2.32 0-4.37-.27-6.13-.81-1.76-.54-3.28-1.28-4.54-2.21-1.26-.93-2.36-2.09-3.3-3.45-.94-1.36-1.63-2.93-2.06-4.71-.43-1.78-.63-3.73-.63-5.84 0-3.07.41-5.81 1.23-8.23.56-1.69 1.22-2.91 1.97-3.66.47-.47 1.69-1.35 3.66-2.64 1.97-1.29 3.4-2.13 4.29-2.53 1.64-.73 3.57-1.09 5.8-1.09 3.14 0 5.72.66 7.73 1.97 2.01 1.31 3.44 2.99 4.27 5.03.83 2.04 1.25 4.51 1.25 7.42 0 .66-.02 1.29-.07 1.9-.59.19-1.48.4-2.67.63-1.59.3-2.67.47-3.23.49-1.76.14-4.08.22-6.96.25s-4.48.05-4.78.07c-.3.02-.64.04-1.02.04h-2.32c.19 3.7 1.34 6.63 3.45 8.77 2.11 2.14 4.71 3.22 7.8 3.22 1.34 0 2.57-.15 3.69-.44 1.12-.29 2.6-.9 4.43-1.81l.84.98zm-8.37-14.55c.09-3.73-.41-6.34-1.51-7.84-1.12-1.48-2.58-2.21-4.36-2.21-1.78 0-3.34.77-4.54 2.32-1.22 1.57-1.78 4.15-1.69 7.73 1.38.21 3.69.32 6.93.32 2.06 0 3.79-.11 5.17-.32z"/></g><defs><clipPath id="a"><path fill="#fff" d="M0 0h314.41v112.8H0z"/></clipPath></defs></svg>

<svg width="315" height="113" viewBox="0 0 315 113" fill="none" xmlns="http://www.w3.org/2000/svg">
<g clip-path="url(#clip0_2359_41)">
<path d="M100.37 0H12.43C5.5651 0 0 5.5651 0 12.43V100.37C0 107.235 5.5651 112.8 12.43 112.8H100.37C107.235 112.8 112.8 107.235 112.8 100.37V12.43C112.8 5.5651 107.235 0 100.37 0Z" fill="#FE0000"/>
<path d="M99.3 82.24C97.66 84.53 96.09 86.72 94.51 88.91C92 92.4 89.47 95.87 86.97 99.37C86.67 99.79 86.42 99.84 85.93 99.72C83.76 99.15 81.58 98.58 79.38 98.16C78.64 98.02 77.79 98.19 77.03 98.39C70.11 100.29 63.2 102.23 56.29 104.13C55.46 104.36 54.59 104.48 53.73 104.6C52.12 104.84 50.68 104.41 49.36 103.45C45.13 100.37 40.87 97.33 36.64 94.24C34.78 92.88 33 91.43 31.17 90.03C29.18 88.51 27.65 86.57 26.16 84.62C23.15 80.69 20.23 76.69 17.31 72.7C16.78 71.97 16.88 71.66 17.57 71.2C17.66 71.14 17.78 71.07 17.89 71.07C19.05 71.07 20.22 70.9 21.35 71.45C22.69 72.1 23.94 72.84 25.04 73.86C27.41 76.07 29.81 78.26 32.2 80.45C32.39 80.62 32.6 80.77 32.86 80.97C32.35 81.24 31.98 81.43 31.62 81.64C30.29 82.41 29.83 83.4 30.1 84.88C30.4 86.53 31.21 87.83 32.66 88.75C34.46 89.89 36.37 90.54 38.55 90.58C45.76 90.72 52.97 90.95 60.18 91.14C60.45 91.14 60.73 91.14 60.99 91.14C61.22 90.49 60.92 90.39 60.43 90.38C57.92 90.32 55.41 90.24 52.89 90.16C48.05 90.01 43.22 89.84 38.38 89.72C36.12 89.66 34.12 88.95 32.35 87.54C31.19 86.62 30.76 85.36 30.73 83.95C30.7 83.03 31.31 82.48 32.05 82.11C34.11 81.07 36.3 80.47 38.6 80.4C39.66 80.37 40.74 80.58 41.8 80.65C43.32 80.75 44.84 80.85 46.37 80.9C50.49 81.05 54.61 80.99 58.59 79.8C60.62 79.19 62.58 78.29 64.53 77.45C67.79 76.06 71.07 74.71 74.62 74.24C80.03 73.51 85.38 73.58 90.41 76.02C93.67 77.61 96.58 79.75 99.31 82.25L99.3 82.24Z" fill="white"/>
<path d="M56.48 7.48001H84.96C85.57 7.48001 85.88 7.78001 85.88 8.39001C85.88 17.72 85.88 27.05 85.88 36.37C85.87 51.68 76.87 65.18 62.71 71C60.83 71.77 58.84 72.26 56.89 72.85C56.59 72.94 56.23 72.92 55.92 72.84C41.73 69.17 32.51 60.31 28.28 46.29C27.3 43.06 26.97 39.71 26.97 36.34C26.96 27.03 26.97 17.73 26.97 8.43001C26.97 7.80001 27.29 7.49001 27.94 7.49001H56.49L56.48 7.48001ZM28.93 9.22001C28.91 9.48001 28.89 9.71001 28.89 9.93001V36.72C28.89 39.27 29.12 41.79 29.73 44.26C32.92 57.04 40.73 65.64 53.12 70.13C55.34 70.93 57.39 70.93 59.64 70.17C74.35 65.17 83.93 51.87 83.95 36.22C83.96 27.5 83.95 18.78 83.95 10.07C83.95 9.80001 83.92 9.52001 83.91 9.22001H28.92H28.93Z" fill="white"/>
<path d="M92 108.78C90.39 106.82 88.9 105.02 87.43 103.2C87.21 102.93 87.15 102.64 87.43 102.26C91.94 96.01 96.4 89.73 100.92 83.5C101.68 82.45 103 81.89 104.21 82.58C104.62 82.81 105.08 82.93 105.52 83.1C106.34 83.4 106.36 83.42 105.97 84.18C104.5 87.12 103.04 90.06 101.52 92.98C99.12 97.58 96.74 102.19 93.82 106.49C93.31 107.24 92.7 107.92 92.01 108.79L92 108.78Z" fill="white"/>
<path d="M35.3 80.07C34.81 80.22 34.33 80.41 33.83 80.5C33.65 80.53 33.39 80.39 33.23 80.26C30.55 77.83 27.88 75.39 25.22 72.94C23.97 71.79 22.54 70.94 20.95 70.42C20.22 70.18 19.38 70.21 18.59 70.19C18.12 70.17 17.89 70.05 17.88 69.56C17.88 69.28 17.78 69.01 17.76 68.73C17.68 67.84 18.14 67.24 19.03 67.28C20.55 67.34 22.08 67.67 23.21 68.71C27.26 72.4 31.22 76.17 35.22 79.91C35.25 79.94 35.26 79.99 35.3 80.08V80.07Z" fill="white"/>
<path d="M23.75 68.06C24.56 67.68 25.27 67.71 25.91 68.17C26.88 68.85 27.91 69.49 28.75 70.31C31.65 73.15 34.48 76.07 37.34 78.95C37.52 79.13 37.76 79.26 37.92 79.48C37.04 79.78 36.33 79.96 35.55 79.21C31.74 75.56 27.86 71.96 24.01 68.35C23.93 68.27 23.87 68.18 23.76 68.05L23.75 68.06Z" fill="white"/>
<path d="M39.79 79.66C39.43 79.53 38.98 79.5 38.73 79.26C35.58 76.14 32.46 72.98 29.34 69.83C29.23 69.72 29.14 69.59 29.04 69.47C29.07 69.42 29.1 69.36 29.13 69.31C29.43 69.44 29.78 69.49 30.01 69.7C33.33 72.74 36.81 75.62 39.67 79.13C39.75 79.23 39.82 79.35 39.9 79.46C39.87 79.53 39.83 79.6 39.8 79.66H39.79Z" fill="white"/>
<path d="M28.92 9.23001H83.91C83.93 9.53001 83.95 9.81001 83.95 10.08C83.95 18.8 83.96 27.52 83.95 36.23C83.93 51.88 74.35 65.18 59.64 70.18C57.38 70.95 55.33 70.95 53.12 70.14C40.73 65.65 32.92 57.05 29.73 44.27C29.11 41.8 28.88 39.27 28.89 36.73V9.94001C28.89 9.71001 28.92 9.48001 28.93 9.23001H28.92ZM56.37 36.85C49.48 33.99 42.75 31.21 36.03 28.42C35.99 28.48 35.96 28.54 35.92 28.61C38.68 31.35 41.44 34.09 44.26 36.88C41.39 39.73 38.6 42.51 35.81 45.29L35.9 45.44C42.66 42.65 49.41 39.85 56.17 37.06C56.2 37.11 56.24 37.16 56.28 37.21C53.49 43.94 50.7 50.68 47.9 57.41C47.96 57.45 48.02 57.49 48.08 57.53C50.84 54.76 53.6 51.98 56.49 49.08C59.29 51.89 62.05 54.67 64.81 57.44C64.84 57.42 64.87 57.41 64.89 57.39C62.1 50.64 59.32 43.9 56.46 36.98C63.39 39.85 70.15 42.65 76.9 45.46L77.04 45.26C74.25 42.48 71.47 39.71 68.55 36.8C71.34 34.03 74.11 31.28 76.98 28.43C70.13 31.26 63.38 34.04 56.47 36.9C59.35 29.96 62.16 23.19 64.96 16.42C64.9 16.37 64.84 16.33 64.78 16.29C62 19.09 59.21 21.89 56.26 24.87C53.46 22.05 50.7 19.27 47.92 16.47C50.72 23.23 53.51 29.98 56.37 36.89V36.85Z" fill="#FE0000"/>
<path d="M56.37 36.85C53.51 29.94 50.71 23.19 47.92 16.43C50.7 19.23 53.46 22.01 56.26 24.83C59.22 21.86 62 19.05 64.78 16.25C64.84 16.3 64.9 16.34 64.96 16.38C62.16 23.14 59.35 29.91 56.47 36.86C63.38 34.01 70.13 31.22 76.98 28.39C74.11 31.24 71.34 33.99 68.55 36.76C71.47 39.67 74.25 42.45 77.04 45.22L76.9 45.42C70.15 42.62 63.39 39.82 56.46 36.94C59.32 43.86 62.1 50.61 64.89 57.35C64.86 57.37 64.83 57.38 64.81 57.4C62.05 54.63 59.29 51.85 56.49 49.04C53.6 51.94 50.84 54.72 48.08 57.49C48.02 57.45 47.96 57.41 47.9 57.37C50.69 50.64 53.48 43.9 56.28 37.17C56.25 37.12 56.21 37.07 56.17 37.02C49.41 39.81 42.66 42.61 35.9 45.4L35.81 45.25C38.6 42.47 41.39 39.7 44.26 36.84C41.45 34.05 38.68 31.31 35.92 28.57C35.96 28.51 35.99 28.45 36.03 28.38C42.75 31.17 49.48 33.96 56.37 36.81V36.85Z" fill="white"/>
<path d="M127.52 79.2V76.21C130.17 76.02 131.74 75.83 132.23 75.65C132.51 75.56 132.73 75.39 132.9 75.16C133.11 74.86 133.25 74.41 133.32 73.82C133.48 72.48 133.62 69.57 133.74 65.07C133.81 62.89 133.85 59.14 133.85 53.82C133.85 49.06 133.81 44.85 133.74 41.18C133.67 37.51 133.52 35.33 133.28 34.62C133.19 34.29 133.04 34.04 132.84 33.86C132.64 33.68 132.26 33.55 131.7 33.46C130.15 33.2 128.76 33.05 127.52 33V30.01C132.35 30.15 135.68 30.22 137.5 30.22C139.91 30.22 142.34 30.15 144.78 30.01L147.87 36.97L150.33 42.24L161.51 65.3C163.9 60.68 165.69 57.1 166.89 54.54L171.53 44.8C174.11 39.36 175.68 36.02 176.26 34.76C176.84 33.5 177.48 31.92 178.21 30C181.28 30.16 183.25 30.25 184.12 30.25L194.6 30V32.99H194.11C191.74 32.97 190.24 33.24 189.61 33.82C188.98 34.4 188.66 35.5 188.66 37.14C188.66 39.09 188.65 40.56 188.62 41.57L188.44 51.45V63.79C188.44 66.79 188.45 68.55 188.48 69.06C188.67 72.04 188.83 73.86 188.97 74.54C189.04 74.87 189.17 75.13 189.36 75.33C189.55 75.53 189.82 75.68 190.17 75.79C190.52 75.9 192 76.03 194.6 76.19V79.18L183.39 78.97L172.42 79.18V76.19C175.33 76.1 176.98 75.93 177.39 75.68C177.8 75.43 178.09 74.88 178.27 74.01C178.45 73.14 178.53 70.24 178.53 65.29V39.7L170.37 56.19L166.47 64.38C165.44 66.54 163.99 69.67 162.11 73.77C160.96 76.25 160.06 78.26 159.4 79.78H157.01C156.17 77.81 154.95 75.12 153.35 71.69C150.63 65.83 148.57 61.46 147.16 58.58L137.91 39.7V56.96C137.91 59.84 137.95 63.27 138.03 67.24C138.11 71.21 138.2 73.46 138.29 73.99C138.38 74.52 138.53 74.9 138.73 75.13C138.93 75.36 139.28 75.56 139.78 75.73C140.28 75.9 141.72 76.05 144.09 76.19V79.18C141.47 79.04 138.78 78.97 136.04 78.97C132.45 78.97 129.61 79.04 127.5 79.18L127.52 79.2Z" fill="currentColor"/>
<path d="M231.34 76.56V79.2C228.64 79.08 226.25 79.02 224.17 79.02C222.2 79.02 220.29 79.08 218.44 79.2L218.12 78.81L218.44 74.2C217.6 74.74 215.11 76.59 210.99 79.75C209.94 79.98 208.93 80.1 207.97 80.1C205.42 80.1 203.42 79.35 201.98 77.85C200.54 76.35 199.82 74.19 199.82 71.38C199.82 69.48 200.14 67.92 200.79 66.7C201.44 65.48 202.13 64.58 202.86 64.01C203.59 63.44 204.74 62.88 206.29 62.34C209.99 61.03 214.05 60 218.45 59.25C218.5 56.46 217.92 54.34 216.73 52.89C215.51 51.44 213.66 50.71 211.18 50.71C210.17 50.71 209.21 50.84 208.3 51.1C207.9 51.22 207.43 51.45 206.89 51.8L205.41 55.35L203.02 54.82L203.23 50.28C204.96 49.11 206.62 48.09 208.19 47.22C209.76 46.35 210.86 45.83 211.49 45.64C212.36 45.38 213.58 45.25 215.15 45.25C217.7 45.25 219.81 45.62 221.46 46.36C223.11 47.1 224.33 47.97 225.12 48.98C225.91 49.99 226.44 51.07 226.74 52.21C227.04 53.35 227.18 54.81 227.18 56.57C227.18 57.32 227.12 59.28 227 62.44C226.93 64.55 226.89 66.27 226.89 67.61C226.89 71.78 227.01 74.31 227.24 75.2C227.33 75.62 227.52 75.9 227.8 76.04C228.18 76.23 229.36 76.39 231.35 76.53L231.34 76.56ZM218.44 62.22C216.45 62.64 214.63 63.15 212.97 63.75C211.31 64.35 210.18 65.09 209.54 65.96C208.9 66.83 208.59 67.95 208.59 69.28C208.59 70.78 208.97 71.94 209.73 72.76C210.49 73.58 211.49 73.99 212.74 73.99C213.79 73.99 214.86 73.69 215.92 73.08C216.98 72.47 217.82 71.7 218.43 70.76V62.22H218.44Z" fill="currentColor"/>
<path d="M254.86 76.39V79.2C251.93 79.01 248.87 78.92 245.68 78.92C242.49 78.92 238.91 79.01 234.92 79.2V76.42C237.15 76.35 238.49 76.26 238.96 76.14C239.31 76.05 239.58 75.91 239.75 75.74C239.92 75.57 240.05 75.29 240.12 74.91C240.28 74.21 240.4 71.99 240.47 68.27C240.54 64.55 240.58 61.24 240.58 58.36V46.76C240.58 43.08 240.5 39.72 240.33 36.67C240.24 35.03 240.12 34.06 239.98 33.75C239.89 33.59 239.76 33.46 239.59 33.36C239.31 33.17 238.86 33.03 238.25 32.94C237.9 32.89 236.84 32.83 235.09 32.76V30.16C238 29.86 240.32 29.52 242.05 29.16C243.78 28.8 246.12 28.16 249.05 27.24L249.79 27.66L249.51 34.76C249.39 38.74 249.32 43.63 249.3 49.42V58.42C249.3 61.82 249.32 64.36 249.37 66.05C249.46 70.25 249.53 72.78 249.58 73.66C249.63 74.54 249.71 75.1 249.83 75.33C249.9 75.49 250.02 75.63 250.18 75.75C250.39 75.91 250.75 76.04 251.27 76.14C251.48 76.19 252.68 76.27 254.86 76.39Z" fill="currentColor"/>
<path d="M258.59 52.45V50.87L261.75 48.87C262.27 48.54 262.76 48.19 263.23 47.82V43.11C263.23 41.42 263.14 39.34 262.95 36.85C265.22 36.1 266.7 35.6 267.38 35.34C267.5 35.29 268.99 34.6 271.84 33.27L272.75 33.97L272.4 37.63L272.15 41.67L271.83 47.82H272.99C276.11 47.82 278.46 47.7 280.06 47.47L279.46 52.22C279.18 52.27 278.92 52.29 278.69 52.29L275.24 52.22H271.83V63.96C271.83 67.57 271.87 69.7 271.94 70.36C272.03 71.46 272.43 72.32 273.12 72.94C273.81 73.56 274.81 73.87 276.13 73.87C276.93 73.89 277.57 73.87 278.05 73.82C278.53 73.77 279.15 73.65 279.9 73.49L280.46 74.93L279.19 76.2C278.16 77.25 277.26 78.18 276.48 78.98C275.57 79.38 274.75 79.64 274.04 79.77C273.33 79.9 272.59 79.96 271.84 79.96C269.12 79.96 266.98 79.26 265.42 77.87C263.86 76.48 263.08 74.74 263.08 72.65L263.22 61.05V52.37H262.27C260.98 52.37 259.75 52.41 258.58 52.48L258.59 52.45Z" fill="currentColor"/>
<path d="M313.57 73.79L312.02 77.24C310.1 78.41 308.12 79.28 306.08 79.84C304.56 80.24 302.82 80.44 300.88 80.44C298.56 80.44 296.51 80.17 294.75 79.63C292.99 79.09 291.47 78.35 290.21 77.42C288.95 76.49 287.85 75.33 286.91 73.97C285.97 72.61 285.28 71.04 284.85 69.26C284.42 67.48 284.22 65.53 284.22 63.42C284.22 60.35 284.63 57.61 285.45 55.19C286.01 53.5 286.67 52.28 287.42 51.53C287.89 51.06 289.11 50.18 291.08 48.89C293.05 47.6 294.48 46.76 295.37 46.36C297.01 45.63 298.94 45.27 301.17 45.27C304.31 45.27 306.89 45.93 308.9 47.24C310.91 48.55 312.34 50.23 313.17 52.27C314 54.31 314.42 56.78 314.42 59.69C314.42 60.35 314.4 60.98 314.35 61.59C313.76 61.78 312.87 61.99 311.68 62.22C310.09 62.52 309.01 62.69 308.45 62.71C306.69 62.85 304.37 62.93 301.49 62.96C298.61 62.99 297.01 63.01 296.71 63.03C296.41 63.05 296.07 63.07 295.69 63.07H293.37C293.56 66.77 294.71 69.7 296.82 71.84C298.93 73.98 301.53 75.06 304.62 75.06C305.96 75.06 307.19 74.91 308.31 74.62C309.43 74.33 310.91 73.72 312.74 72.81L313.58 73.79H313.57ZM305.2 59.24C305.29 55.51 304.79 52.9 303.69 51.4C302.57 49.92 301.11 49.19 299.33 49.19C297.55 49.19 295.99 49.96 294.79 51.51C293.57 53.08 293.01 55.66 293.1 59.24C294.48 59.45 296.79 59.56 300.03 59.56C302.09 59.56 303.82 59.45 305.2 59.24Z" fill="currentColor"/>
</g>
<defs>
<clipPath id="clip0_2359_41">
<rect width="314.41" height="112.8" fill="white"/>
</clipPath>
</defs>
</svg>
